X:26
T:Si vous passez par Nantes
O:France
A:Bourbonnais
R:Bourre  3 temps
M:3/8
L:1/4
K:G
Gdc|d>A B|cdB|A2G|Gdc|d>A B|cdB|A3:|
|:GAB|A>G A|dcB|G2=F|GAB|A>G A|dcB|G3:||
